X:1
T:All Hail, Ye Merry Folk Today
T:All Hail, Ye Merry Folk Today
T:George F. Terry
T:Honyel Gough Rosedale, before 1917
T:Public Domain Courtesy of the Cyber Hymnal™
T:Public Domain Courtesy of the Cyber Hymnal™
C:George F. Terry
Z:Public Domain
Z:Courtesy of the Cyber Hymnal™
%%score ( 1 2 ) ( 3 4 )
L:1/8
Q:1/4=140
M:3/4
K:A
V:1 treble 
V:2 treble 
V:3 bass 
V:4 bass 
V:1
 [CE]2 | [EA]4 [Ec]2 | (e2 d2) [Ec]2 | [EB]4 [EA]2 | [EG]4 [DF]2 | [DE]4 [DF]2 | (G2 A2) [FB]2 | %7
w: 1.~All|hail, ye|mer- * ry|folk to-|day, All|hail, we|sing * our|
w: 2.~Be-|gone all|gloom, * cast|grief a-|side, May|joy with|us * for|
w: 3.~Come|let us|seek * the|in- fant|King, And|hom- age|pay, * and|
w: 4.~Seek|not ye|pal- * ace|rich or|grand, Nor|with the|great- * est|
w: 5.~Lo!|there we|find * Him,|great- est,|best, Who|in a|man- * ger|
w: 6.~With|us your|hap- * py|songs u-|nite, With-|in your|hearts * to|
 [Fc]4 [^Ec]2 | [Fc]4 [EG]2 | [EA]4 [EB]2 | [Ec]4 [EG]2 | A4 [=DB]2 | [Cc]4 [EA]2!p! | %13
w: glad- some|lay, Come|list to|us as|we do|say, Our|
w: aye a-|bide, What|bet- ter|deed could|us be-|tide, Than|
w: to Him|bring Our|hearts as|fit- test|of- fer-|ing, And|
w: men to|stand, But|join a|low- ly|pil- grim|band In|
w: deigns to|rest, Who|by His|life ye|world hath|blest, Most|
w: dwell, in-|vite The|God who|do- eth|all things|right, Your|
"^rall." [FA]6 | [=FA]6 | [EA]4!f! ||"^Refrain" [Ee]2 | (e3 d) (cB) | [FA]4 [FA]2 | (B3 A) (Bc) | %20
w: car-|ol|gay.|||||
w: death|de-|fied.|||||
w: to|Him|sing.|No-|el, * No- *|el, we|sing * No- *|
w: Is-|rael’s|land.|||||
w: wel-|come|guest.|||||
w: soul|to|light.|||||
 [CB]4 [=GA]2 | d4 d2 | [Ac]4 [EA]2 | (A2 G2) [=DA]2 | [EB]4 [=DE]2 | [Cc]4 [Cc]2 | [CG]4 [^EG]2 | %27
w: |||||||
w: |||||||
w: el, And|this the|an- gels|came * to|tell, For|God who|do- eth|
w: |||||||
w: |||||||
w: |||||||
 [FA]4 [=EB]2 | [Ec]4 [EA]2 | [FA]6 | [=FA]6 | [EA]6 |] %32
w: |||||
w: |||||
w: all things|well With|man|doth|dwell.|
w: |||||
w: |||||
w: |||||
V:2
 x2 | x6 | E4 x2 | x6 | x6 | x6 | E4 x2 | x6 | x6 | x6 | x6 | (F2 ^D2) x2 | x6 | x6 | x6 | x4 || %16
 x2 | E4 G2 | x6 | F4 ^E2 | x6 | (F3 G) (AB) | x6 | ^D4 x2 | x6 | x6 | x6 | x6 | x6 | x6 | x6 | %31
 x6 |] %32
V:3
 A,2 | [A,C]4 [A,C]2 | [G,B,]4 A,2 | [G,D]4 [A,C]2 | [E,B,]4 [F,A,]2 | [G,B,]4 [F,A,]2 | %6
 (B,2 C2) [D,B,]2 | [C,A,]4 [C,G,]2 | [F,A,]4 [B,D]2 | [A,C]4 [G,D]2 | [A,C]4 [E,B,]2 | %11
 [F,A,]4 [G,E]2 | [A,E]4 [A,C]2!p! | [D,A,]6 | [D,B,]6 | [A,,C]4 ||!f! [A,C]2 | [G,B,]4 [E,D]2 | %18
 [F,C]4 [E,C]2 | (B,2 F,2) [C,G,]2 | [F,A,]4 [E,C]2 | D4 ([F,D][G,B,]) | [A,D]4 [A,C]2 | %23
 [F,A,]4 [F,A,]2 | [E,G,]4 [E,G,]2 | A,4 [E,A,]2 | [^E,G,]4 [C,C]2 | [E,B,]4 [G,D]2 | %28
 [A,C]4 [A,C]2 | [D,A,]6 | [D,B,]6 | [A,,C]6 |] %32
V:4
 A,2 | x6 | x4 A,2 | x6 | x6 | x6 | E,4 x2 | x6 | x6 | x6 | x6 | x6 | x6 | x6 | x6 | x4 || x2 | %17
 x6 | x6 | D,4 x2 | x6 | (D,3 E,) x2 | x6 | x6 | x6 | (A,,2 C,2) x2 | x6 | x6 | x6 | x6 | x6 | %31
 x6 |] %32

